Numix-GalliumOS/22/mimetypes/application-certificate.svg

<?xml version="1.0" encoding="UTF-8" standalone="no"?>
<svg
   xmlns:dc="http://purl.org/dc/elements/1.1/"
   xmlns:cc="http://creativecommons.org/ns#"
   xmlns:rdf="http://www.w3.org/1999/02/22-rdf-syntax-ns#"
   xmlns:svg="http://www.w3.org/2000/svg"
   xmlns="http://www.w3.org/2000/svg"
   xmlns:sodipodi="http://sodipodi.sourceforge.net/DTD/sodipodi-0.dtd"
   xmlns:inkscape="http://www.inkscape.org/namespaces/inkscape"
   width="22"
   height="22"
   viewBox="0 0 22 22"
   id="svg2"
   version="1.1"
   inkscape:version="0.48.5 r10040"
   sodipodi:docname="application-certificate.svg">
  <metadata
     id="metadata16">
    <rdf:RDF>
      <cc:Work
         rdf:about="">
        <dc:format>image/svg+xml</dc:format>
        <dc:type
           rdf:resource="http://purl.org/dc/dcmitype/StillImage" />
      </cc:Work>
    </rdf:RDF>
  </metadata>
  <defs
     id="defs14" />
  <sodipodi:namedview
     pagecolor="#ffffff"
     bordercolor="#666666"
     borderopacity="1"
     objecttolerance="10"
     gridtolerance="10"
     guidetolerance="10"
     inkscape:pageopacity="0"
     inkscape:pageshadow="2"
     inkscape:window-width="1280"
     inkscape:window-height="970"
     id="namedview12"
     showgrid="true"
     inkscape:zoom="10.727273"
     inkscape:cx="6.1758371"
     inkscape:cy="8.2284299"
     inkscape:window-x="0"
     inkscape:window-y="0"
     inkscape:window-maximized="1"
     inkscape:current-layer="svg2">
    <inkscape:grid
       type="xygrid"
       id="grid3004" />
  </sodipodi:namedview>
  <path
     style="fill:#ce6a20;fill-opacity:1"
     d="m 4,-2e-7 c -0.472657,0 -1,0.527344 -1,1 L 3,21 c 0,0.445312 0.554687,1 1,1 l 14,0 c 0.445313,0 0.992367,-0.554753 1,-1 l 0,-15.0000002 -6,-6 z"
     id="path4-9"
     inkscape:connector-curvature="0"
     sodipodi:nodetypes="ssssssccs" />
  <path
     style="fill:#ffffff"
     d="m 11,5.1262273 c -0.539773,0 -1,0.301136 -1.2102269,0.7329542 C 9.3806822,5.5807728 8.801136,5.5296353 8.3352276,5.7796368 7.8693178,6.0296353 7.6193178,6.512591 7.6647724,6.9784993 7.1647724,6.9330448 6.6420451,7.165999 6.3749993,7.5978186 6.102272,8.0353182 6.1590909,8.5694084 6.4602269,8.9500906 5.9943185,9.1432731 5.6647724,9.5694084 5.6647724,10.069408 c 0,0.505682 0.3295461,0.931819 0.7954545,1.125001 -0.301136,0.380681 -0.3579549,0.914773 -0.085228,1.352272 0.2670458,0.431818 0.7897731,0.659091 1.2897731,0.613637 -0.045455,0.471591 0.2045454,0.948864 0.6704552,1.198864 C 8.5397731,14.472818 8.7727273,14.518272 9,14.518272 L 9,19.791 11,17.938726 13,19.791 13,14.518272 c 0.227273,0 0.460227,-0.04545 0.664772,-0.15909 0.46591,-0.25 0.71591,-0.727273 0.670456,-1.198864 0.5,0.04545 1.022727,-0.181819 1.289773,-0.613637 0.272727,-0.437499 0.215908,-0.971591 -0.08523,-1.352272 0.465908,-0.193182 0.795455,-0.619319 0.795455,-1.125001 0,-0.4999996 -0.329547,-0.9261349 -0.795455,-1.1193174 0.301136,-0.3806822 0.357955,-0.9147724 0.08523,-1.352272 C 15.357955,7.165999 14.835228,6.9330448 14.335228,6.9784993 14.380682,6.512591 14.130682,6.0296353 13.664772,5.7796368 13.198864,5.5296353 12.619318,5.5807728 12.210227,5.8591815 12,5.4273633 11.539773,5.1262273 11,5.1262273 z m 0,1.8352277 c 1.840909,0 3.335228,1.3806807 3.335228,3.090909 0,1.704544 -1.494319,3.090909 -3.335228,3.090909 -1.8409091,0 -3.3352276,-1.386365 -3.3352276,-3.090909 0,-1.7102283 1.4943185,-3.090909 3.3352276,-3.090909 z m 0,0.6193178 c -1.4715913,0 -2.6647724,1.102272 -2.6647724,2.4715912 0,1.363636 1.1931811,2.47159 2.6647724,2.47159 1.471591,0 2.664772,-1.107954 2.664772,-2.47159 0,-1.3693192 -1.193181,-2.4715912 -2.664772,-2.4715912 z"
     id="path10"
     inkscape:connector-curvature="0" />
  <path
     style="fill:#ffffff;fill-opacity:0.39200003"
     d="m 13,-2e-7 6,6 -5,0 c -0.445312,0 -1,-0.554688 -1,-1 z"
     id="path8"
     inkscape:connector-curvature="0"
     sodipodi:nodetypes="ccssc" />
  <path
     style="fill:#000000;fill-opacity:0.19599998"
     d="M 14,5.9999998 19,11 19,5.9999998 z"
     id="path6"
     inkscape:connector-curvature="0"
     sodipodi:nodetypes="cccc" />
</svg>

<svg xmlns="http://www.w3.org/2000/svg" viewBox="0 0 22 22">
 <path d="m 4 0 c -0.473 0 -1 0.527 -1 1 l 0 20 c 0 0.445 0.555 1 1 1 l 14 0 c 0.445 0 0.992 -0.555 1 -1 l 0 -15 -6 -6 z" style="fill:#ce6a20;fill-opacity:1"/>
 <path d="m 11 5.126 c -0.54 0 -1 0.301 -1.21 0.733 c -0.409 -0.278 -0.989 -0.33 -1.455 -0.08 -0.466 0.25 -0.716 0.733 -0.67 1.199 -0.5 -0.045 -1.023 0.187 -1.29 0.619 -0.273 0.437 -0.216 0.972 0.085 1.352 -0.466 0.193 -0.795 0.619 -0.795 1.119 c 0 0.506 0.33 0.932 0.795 1.125 -0.301 0.381 -0.358 0.915 -0.085 1.352 0.267 0.432 0.79 0.659 1.29 0.614 -0.045 0.472 0.205 0.949 0.67 1.199 c 0.205 0.114 0.438 0.159 0.665 0.159 l 0 5.273 2 -1.852 2 1.852 0 -5.273 c 0.227 0 0.46 -0.045 0.665 -0.159 0.466 -0.25 0.716 -0.727 0.67 -1.199 0.5 0.045 1.023 -0.182 1.29 -0.614 0.273 -0.437 0.216 -0.972 -0.085 -1.352 0.466 -0.193 0.795 -0.619 0.795 -1.125 0 -0.5 -0.33 -0.926 -0.795 -1.119 0.301 -0.381 0.358 -0.915 0.085 -1.352 c -0.267 -0.432 -0.79 -0.665 -1.29 -0.619 0.045 -0.466 -0.205 -0.949 -0.67 -1.199 -0.466 -0.25 -1.045 -0.199 -1.455 0.08 -0.21 -0.432 -0.67 -0.733 -1.21 -0.733 z m 0 1.835 c 1.841 0 3.335 1.381 3.335 3.091 0 1.705 -1.494 3.091 -3.335 3.091 -1.841 0 -3.335 -1.386 -3.335 -3.091 0 -1.71 1.494 -3.091 3.335 -3.091 z m 0 0.619 c -1.472 0 -2.665 1.102 -2.665 2.472 0 1.364 1.193 2.472 2.665 2.472 1.472 0 2.665 -1.108 2.665 -2.472 0 -1.369 -1.193 -2.472 -2.665 -2.472 z" style="fill:#fff"/>
 <path d="m 13 0 6 6 -5 0 c -0.445 0 -1 -0.555 -1 -1 z" style="fill:#fff;fill-opacity:0.392"/>
 <path d="m 14 6 5 5 0 -5 z" style="fill:#000;fill-opacity:0.196"/>
</svg>
